!!!SOCIAL_FUNCTION:	songs connected with the treatment of the sick
!!!PDT:	1957
!!!OTL: No_21_Song_During_Treatment_of_the_Sick.krn
!!!LING_GROUP: Keresan
!!!LANG: Tone
!!!REG: Southwest
**kern	**kern
*staff2	*staff1
=1-	=1-
=	=
*clefF4	*clefF4
*k[]	*k[]
*M7/8	*M7/8
4r	8c\L
.	8A\J
8r	4c\
2r	.
.	8A\L
.	8.c\
.	16A\Jk
=2	=2
*M3/4	*M3/4
4GG/	4c\
4GG/	4c\
4GG/	4c\
=3	=3
*M2/4	*M2/4
4GG/	8e\L
.	8c\J
4GG/	8e\L
.	8c\J
=4	=4
4GG/	8c\L
.	8B\J
4GG/	4A\
=5	=5
4GG/	8c\L
.	8A\J
4GG/	8c\L
.	8A\J
=6	=6
*M3/4	*M3/4
4GG/	8A\L
.	8F\J
4GG/	4F\
4GG/	4F\
=7	=7
*M7/8	*M7/8
2..r	8A\L
.	8F\J
.	4A\
.	8F\L
.	8.A\
.	16F\Jk
=8	=8
*M3/4	*M3/4
2.r	4A\
.	4A\
.	4A\
=9	=9
*M2/4	*M2/4
2r	8c\L
.	8A\J
.	8c\L
.	8A\J
=10	=10
2r	8A\L
.	8F\J
.	8F\
.	8r
=11	=11
2r	4A\
.	8c\L
.	8A\J
=12	=12
*M3/4	*M3/4
2.r	8A\L
.	8F\J
.	4F\
.	8F/L
.	8C/J
=13	=13
*M2/4	*M2/4
2r	8F\L
.	[8F\J
.	4F\]
=14	=14
*M5/8	*M5/8
3...r	4F\
.	8F\
.	8r
.	8A\
=15	=15
*M7/8	*M7/8
2..r	8c\L
.	8B\
.	16c\Jk
.	16r
.	8A\L
.	8c\
.	8B\
.	8c\J
=16	=16
*M5/8	*M5/8
3...r	4A\
.	8A\L
.	8E\
.	8A\J
=17	=17
*M3/4	*M3/4
2.r	8A\L
.	8A\J
.	4A\
.	8A\
.	8r
==:|!	==:|!
*-	*-
